packages/blockchain-info-components/src/Images/img/file-download.svg

<svg fill="none" height="24" viewBox="0 0 24 24" width="24" xmlns="http://www.w3.org/2000/svg"><path d="m19 9h-4v-6h-6v6h-4l7 7zm-14 9v2h14v-2z" fill="#98a1b2"/></svg>

<svg width="24" height="24" viewBox="0 0 24 24" fill="none" xmlns="http://www.w3.org/2000/svg">
<path d="M19 9H15V3H9V9H5L12 16L19 9ZM5 18V20H19V18H5Z" fill="#98A1B2"/>
</svg>
